X:1
T:St. Helen, 87.87.87
T:St. Helen, 87.87.87
T:George Clement Martin (1844-1916)
T:Public Domain Courtesy of the Cyber Hymnal™
C:George Clement Martin (1844-1916)
Z:Public Domain
Z:Courtesy of the Cyber Hymnal™
%%score ( 1 2 ) ( 3 4 )
L:1/8
Q:1/4=115
M:none
K:C
V:1 treble 
V:2 treble 
V:3 bass 
V:4 bass 
V:1
 [Cc]2 [Ec]2 | [Fc]2 E2 A3 G | E2 D2 C2 [B,C]2 | [A,CA]2 [CG]2 G2 [CA]2 | [B,DB]4 [DG]3 G | %5
 [Gd]2 [Gc]2 [Fc]3 [FB] | [FA]2 [FG]2 [EG]2 [Ge]2 | [Gd]2 [GB]2 [GA]2 [^FA]2 | G4 [Gd]3 [Gd] | %9
 [Ge]2 [GBd]2 [G_Be]3 [GBe] | [Af]2 [Ge]2 [Gc]2 [Gce]2 | [_Beg]2 [Adf]2 [Gce]2 [GBd]2 | [Gc]4 |] %13
V:2
 x4 | x2 E2 C4 | B,4 C2 x2 | x4 D4 | x7 G | x8 | x8 | x8 | G4 x4 | x8 | x8 | x8 | x4 |] %13
V:3
 [C,C]2 [G,C]2 | [C,C]4 [F,,C,F,]3 [C,E,] | G,2 F,2 [A,,E,]2 [G,,E,]2 | %3
 [F,,F,]2 [E,,G,]2 B,2 ^F,2 | [G,,G,]4 [G,B,]3 [G,B,] | [F,B,]2 [E,C]2 [D,G,]3 [D,G,] | %6
 [C,D]2 [B,,D]2 [C,C]2 C2 | [B,D]2 [G,D]2 [D,D]2 [D,C]2 | [G,B,]4 [G,B,]3 [G,B,] | %9
 C2 [G,B,]2 C3 C | [F,C]2 [C,C]2 [E,C]2 [C,CE]2 | [^C,^EG]2 [D,DF]2 [G,,G,E]2 [G,,G,D]2 | %12
 [E,,C,E]4 |] %13
V:4
 x2 (C,B,,) | A,,2 G,,2 x4 | G,,4 x4 | x4 D,,4 | x8 | x8 | x6 C2 | x8 | x8 | C2 C3 C x2 | x8 | x8 | %12
 x4 |] %13

